X: 71
T: Sal's Got Mud Between Her Toes
S: https://trillian.mit.edu/~jc/music/abc/OldTime/reel/Sals_Got_Mud_Between_Her_Toes_2-D-48-3.abc
R: Reel
M: C|
L: 1/8
K: D
FF |:"D"A2A2 FEDE | F2A2 A2zA | B2A2 FEDE |1 "A7"F2E2 E2FF :|2 "A7"E2D2 "D"D2 AB|]
|: "D"d2d2 BAFA | d2d2 f4 | f3a fede | "A7"f2e2 e2de |
"D"f2a2 fed2 | "G"B2d2 B2zB | "D"d2B2 AFEF | "A7"E2D2 "D"D2 AB:|
|:"D"D2D2 DB,A,B, | D2D2 F4 | FED2 B,2A,2 |1 B,A,B,C D2 AB :|2 "A7"B,A,B,C "D"D4 |]

